X:1
T:Im Walde
T:Im Walde
T:aus: "Liederkreis", op. 39, 1840
T:Robert Schumann
C:Robert Schumann
%%score ( 1 2 ) { ( 3 6 ) | ( 4 5 7 ) }
L:1/8
Q:3/8=80
M:6/8
K:G
V:1 treble nm="Voice"
V:2 treble 
V:3 treble nm="Piano"
V:6 treble 
V:4 bass 
V:5 bass 
V:7 bass 
V:1
"^Ziemlich lebendig" z6 | z2 z z2!mf! G | G2 G/G/"^rit." G>AB | %3
w: |Es|zog ei- ne Hoch- zeit den|
[Q:3/8=70] A2 G[Q:3/8=50] G3[Q:3/8=80] | z6 | z6 | z6 | z2 z z2 G | G>G"^rit."G (G[Q:3/8=75]A)B | %9
w: Berg ent- lang,||||ich|hör- te die Vö- * gel|
[Q:3/8=70] (A2 G)[Q:3/8=50] G2[Q:3/8=80] z | z6 | z6 | z2 z z2!f! A | A>AA ABc | c2 G G3 | z6 | %16
w: schla- * gen,|||da|blitz- ten viel Rei- ter, das|Wald- horn klang,||
 z2 z z2!f! A | A2 A ABc | (c2 G) G2 z | z6 | z6 | z6 | z2 z z2!p! B, | EEE"^rit." E2 ^G | %24
w: das|war ein lus- ti- ges|Ja- * gen!||||Und|eh ich's ge- dacht, war|
[Q:3/8=75] FEE E3 | z6 | z6[Q:3/8=70] |[Q:3/8=75] z6 | z2 z z2!p![Q:3/8=65] ^C | F2 F"^rit." F^GA | %30
w: al- les ver- hallt,||||die|Nacht be- de- cket die|
[Q:3/8=50] (^G2 F) F2[Q:3/8=80] z | z6 |!p! D3 D2 D |!<(! D3 =G2!<)! D | D3 D2 D | %35
w: Run- * de,||nur von den|Ber- gen noch|rau- schet der|
!<(! (D3 A3)!<)! | z2[Q:3/8=75] z D2 D | D3[Q:3/8=70] B2 B | A3 B3 |[Q:3/8=65] (c6 | %40
w: Wald, _|und mich|schau- ert's im|Her- zens-|grun-|
 B3[Q:3/8=60] _B3) | A2 z z2 z | z2 z[Q:3/8=55] A2 =B | c6 | B3- B2 B | (A6 | F3-) F2 G | G6- | %48
w: |de,|und mich|schau-|ert's _ im|Her-|* * zens-|grun-|
!>(! (G3- G2 G,)!>)! | G,2 z |] %50
w: |de.|
V:2
 x6 | x6 | x6 | x6 | x6 | x6 | x6 | x6 | x6 | x6 | x6 | x6 | x6 | x6 | x6 | x6 | x6 | x6 | x6 | %19
 x6 | x6 | x6 | x6 | x6 | x6 | x6 | x6 | x6 | x6 | x6 | x6 | x6 | x6 | x6 | x6 | x6 | x6 | x6 | %38
 x6 | x6 | x6 | x6 | x6 | x6 | x6 | x6 | x6 | x6 | x3- G3 | G2 x |] %50
V:3
 z2!p! D D2 [B,D] |!<(! [B,D]2 [G,B,D] [G,B,D]2 [G,B,D]!<)! | %2
 [G,B,D]2 [G,B,D]"^rit."!>(! [G,B,D]2 [G,B,D]!>)! | [G,B,D]2 [G,B,D] D2"^Im Tempo" .E | !>!E6- | %5
 E[Ec][DB] .[CFA]2 .[B,G] | .[B,G]2!<(! D D2 [B,D] | [B,D]2 [G,B,D] [G,B,D]2!<)! [G,B,D] | %8
 [G,B,D]2"^rit."!>(! [G,B,D] [G,B,D]2 [G,B,D] | [G,B,D]2 [G,B,D]!>)! D2"^Im Tempo" .E | %10
!<(! !>!E6- | E!<)![Ec][DB] .[CFA]2 .[B,G] | .[B,G]2 .[B,G] .[B,G]2!f! [A,=FA] | A3- A2 G | %14
 G3- G2 [B,=FG]- |!<(! [B,FG][AB=f][GBe] [=FBd]2!<)! [EGc] | %16
!>(! [EGc]2 [G,EG] [G,EG]2!>)!!f! [A,=FA] | [=FA]3 [FA] z [EG] | [EG]3 [EG] z [B,=FG]- | %19
!<(! [B,FG][AB=f][GBe] [=FBd]2!<)! [EGc] | [EGc]2!>(! C C2 B, | %21
 B,2[K:bass] [^G,B,] [G,B,]2!>)! [E,G,B,] | [E,^G,B,]2 [E,G,B,] [E,G,B,]2 [E,G,B,] | %23
!pp! [E,^G,B,]6- | [E,G,-B,-]6 | ^C6- | C[K:treble]A[B,^G] .[A,^CF]2 .[^G,C^E] | %27
 .[A,^CF]2!<(! [A,C] [A,C]2 [A,C] | [A,^C]2 [A,C] [A,C]2!<)! [A,C] |!pp!"^rit." [A,^C]6- | %30
 [A,C]3- C2!p!"^Im Tempo" D | D2 D D3- | D2 D D3- | D2 D D3- | D2 D D3- | D2 D!<(! D3- | %36
 D2 D D2!<)! D | D3[K:bass]!p!!<(! ([G,B,D]3 | [F,A,D]3!<)! [G,B,D]3 |!>(! [F,CD-]6 | [G,D]6!>)! | %41
 ([F,A,-D-]6) | [=F,D]6) |!pp! C6 | [D,G,-B,]6 |!>(! [G,A,-]6 | [F,A,]3- [F,A,]2 G,!>)! | %47
 [C,E,G,]6- | [C,E,G,-]6 | [B,,D,G,]2 z |] %50
V:4
 z2!ped! D, D,2 D,!ped-up! | D,2 D, D,2 [G,,D,] | D,2 D, D,2 D, | D,2 D, D,2 D, | D,2 D, D,2 D, | %5
 D,2 D, .[D,D]2 .[G,D] | .[G,D]2 D, D,2 D, | D,2 D, D,2 [G,,D,] | D,2 D, D,2 D, | D,2 D, D,2 D, | %10
 D,2 D, D,2 D, | D,2 D, .[D,D]2 .[=G,D] | .[G,D]2 .[G,D] .[G,D]2 [=F,,C,] | C,2 C, C,2!f! C, | %14
 C,2 C, C,2 G,,- | C,,2 C,, C,,2 C,, | C,2 C, C,2 C, | C,2 C, C, z!f! C, | C,2 C, C, z G,,- | %19
 C,,2 C,, C,,2 C,, | [C,,C,]2 C, C,2 B,, | B,,2 B,, B,,2 B,, | B,,2 [E,,B,,] [E,,B,,]2 [E,,B,,] | %23
 B,,2 B,,"^rit." B,,2 B,, | B,,2 B,, B,,2 ^C, | ^C,6- | C, z [B,,,B,,] .[^C,,^C,]2 .[C,,C,] | %27
 .[F,,^C,]2 C, C,2 C, | ^C,2 [F,,C,] [F,,C,]2 [F,,C,] | ^C,2 C, C,2 C, | ^C,2 C, C,2 D, | %31
 D,3- D,3- | D,2 D, D,3- | D,2 D, D,3- | D,2 D, D,3- | D,2 D, D,3- | D,2 D, D,2 D, | D,3 (D,3 | %38
 D,3 D,3 | D,6- | D,6 | [D,,D,]6- | [D,,D,]6) | [A,,,A,,]6 |!pp! [B,,,B,,]3- [B,,,B,,]2 [C,,C,] | %45
 [D,,D,]6- | [D,,D,]6 | [G,,,G,,]6- | [G,,,G,,]6- | [G,,,G,,]2 z |] %50
V:5
 x6 | x6 | G,,6- | G,,2 x4 | x6 | x6 | x6 | x6 | G,,6- | G,,2 x4 | x6 | x6 | x6 | =F,,3- F,,2 C,, | %14
 C,,3- C,,2 C,, | G,,6 | C,,3- C,,2 =F,, | =F,,3 F,, x C,, | C,,3 C,, x C,, | G,,6 | x6 | x6 | x6 | %23
 E,,6- | E,,6- | E,,2 ^E,, E,,2 F,, | F,, x5 | x6 | x6 | F,,6- | F,,6- | F,,2 D,, D,,2 E,, | %32
 E,,2 F,, F,,2 G,, | G,,2 E,, E,,2 F,, | F,,2 G,, G,,2 A,, | A,,2 F,, F,,2 G,, | %36
 G,,2 A,, A,,2 B,, | B,,3 G,,3 | C,3 B,,3 | A,,6 | G,,6 | x6 | x6 | x6 | x6 | x6 | x6 | x6 | x6 | %49
 x3 |] %50
V:6
 x6 | x6 | x6 | x3 [G,B,]3- | [G,B,]2!<(! [^G,B,] [G,B,]2 [A,C]!<)! | [A,C] x5 | x6 | x6 | x6 | %9
 x3 [G,B,]3- | [G,B,]2 [^G,B,] [G,B,]2 [A,C] | [A,C] x5 | x6 | [A,=F]2 [A,F] [A,F]2 [G,E] | %14
 [G,E]2 [G,E] [G,E]2 x | x6 | x6 | (A,C)C A, x G, | (G,C)C G, x2 | x6 | x6 | x2[K:bass] x4 | x6 | %23
 x6 | x4 x!p! ^C | [G,B,]2!<(! [^G,B,] [G,B,]2 [F,A,]!<)! | [F,A,][K:treble] x5 | x6 | x6 | x6 | %30
 x3 A,3- | A,2 F, F,2 =G, | G,2 A, A,2 B, | B,2 G, G,2 A, | A,2 B, B,2 =C | C2 A, A,2 B, | %36
 B,2 C C2 D | x3[K:bass] x3 | x6 | x6 | B,3 _B,3 | x6 | A,3- A,2 =B, | E,3- E,2 ^F, | x6 | x6 | %46
 x6 | x6 | x6 | x3 |] %50
V:7
 x6 | x6 | x6 | x6 | x6 | x6 | x6 | x6 | x6 | x6 | x6 | x6 | x6 | x6 | x6 | x5 C, | x6 | x6 | x6 | %19
 x5 C, | x6 | x6 | x6 | x6 | x6 | x6 | x6 | x6 | x6 | x6 | x6 | x6 | x6 | x6 | x6 | x6 | x6 | x6 | %38
 x6 | x6 | x6 | x6 | x6 | x6 | x6 | x6 | x6 | x6 | x6 | x3 |] %50

